X: 14668
T: Gan Ainm
R: jig
M: 6/8
K: Edorian
|:~B3 ~E3|EBB G2A|FAA DED|DAF G2A:|
|:Bee efe|dBA G2A|Bdd d2e|dBA G2A:|

